images/fq5.svg

<svg width="20" height="20" viewBox="0 0 20 20" fill="none" xmlns="http://www.w3.org/2000/svg">
<path fill-rule="evenodd" clip-rule="evenodd" d="M0 10C0 4.477 4.477 0 10 0C15.523 0 20 4.477 20 10C20 15.523 15.523 20 10 20C4.477 20 0 15.523 0 10ZM7 6C6.60218 6 6.22064 6.15804 5.93934 6.43934C5.65804 6.72064 5.5 7.10218 5.5 7.5V7.51C5.5 7.90782 5.65804 8.28936 5.93934 8.57066C6.22064 8.85196 6.60218 9.01 7 9.01H7.01C7.40782 9.01 7.78936 8.85196 8.07066 8.57066C8.35196 8.28936 8.51 7.90782 8.51 7.51V7.5C8.51 7.10218 8.35196 6.72064 8.07066 6.43934C7.78936 6.15804 7.40782 6 7.01 6H7ZM13 6C12.6022 6 12.2206 6.15804 11.9393 6.43934C11.658 6.72064 11.5 7.10218 11.5 7.5V7.51C11.5 7.90782 11.658 8.28936 11.9393 8.57066C12.2206 8.85196 12.6022 9.01 13 9.01H13.01C13.4078 9.01 13.7894 8.85196 14.0707 8.57066C14.352 8.28936 14.51 7.90782 14.51 7.51V7.5C14.51 7.10218 14.352 6.72064 14.0707 6.43934C13.7894 6.15804 13.4078 6 13.01 6H13ZM7.034 14.866C6.92031 14.8002 6.82071 14.7126 6.74088 14.6082C6.66106 14.5039 6.60257 14.3849 6.56877 14.2579C6.53496 14.131 6.5265 13.9986 6.54387 13.8684C6.56124 13.7382 6.6041 13.6126 6.67 13.499C7.10896 12.7391 7.74018 12.1081 8.50025 11.6695C9.26031 11.2308 10.1224 10.9999 11 11C11.2652 11 11.5196 11.1054 11.7071 11.2929C11.8946 11.4804 12 11.7348 12 12C12 12.2652 11.8946 12.5196 11.7071 12.7071C11.5196 12.8946 11.2652 13 11 13C10.4731 12.9997 9.95533 13.1381 9.49891 13.4014C9.04248 13.6648 8.66347 14.0437 8.4 14.5C8.26739 14.7297 8.04897 14.8973 7.7928 14.9659C7.53663 15.0345 7.26368 14.9986 7.034 14.866Z" fill="#BDD0EA"/>
</svg>

<svg width="20" height="20" fill="none" xmlns="http://www.w3.org/2000/svg"><path fill-rule="evenodd" clip-rule="evenodd" d="M0 10C0 4.477 4.477 0 10 0s10 4.477 10 10-4.477 10-10 10S0 15.523 0 10zm7-4a1.5 1.5 0 00-1.5 1.5v.01A1.5 1.5 0 007 9.01h.01a1.5 1.5 0 001.5-1.5V7.5A1.5 1.5 0 007.01 6H7zm6 0a1.5 1.5 0 00-1.5 1.5v.01a1.5 1.5 0 001.5 1.5h.01a1.5 1.5 0 001.5-1.5V7.5a1.5 1.5 0 00-1.5-1.5H13zm-5.966 8.866a.999.999 0 01-.364-1.367A5 5 0 0111 11a1 1 0 010 2 3 3 0 00-2.6 1.5 1 1 0 01-1.366.366z" fill="#BDD0EA"/></svg>
